X:1
T:[ID 6-66]
T:[ID 6-66]
T:Bezeichnung standardisiert: Menuett Menuet
T:Urheber unbekannt Erstbeleg: 1775 (Datum in der schriftlichen Quelle) Datum in der hier transkribierten schriftlichen Quelle: 1799
C:Urheber unbekannt
C:Erstbeleg: 1775 (Datum in der schriftlichen Quelle)
C:Datum in der hier transkribierten schriftlichen Quelle: 1799
%%score 1 2
L:1/8
M:3/4
K:A
V:1 treble nm="Primo"
V:2 treble nm="Secondo"
V:1
 A2 c2 e2 | ag a4 | edcBAG | A6 | AGABcB | AGABcB | d2 fedc | B6 :: E2 e4 | defd B2 | %10
!p! (dc)(cB) B2 |!f! E2 d4 | cdec A2 |!p! (cB)(BA) A2 |!f! A2 c2 e2 | ag a4 | EdcBAG | A6 :| %18
V:2
 !fermata!C2 A2 c2 | fe f4 | cBAGFE | C6 | CB,CDED | CB,CDEC | B2 dcBA | G6 :: A2 c4 | BcdB G2 | %10
!p! (BA)(AG) G2 |!f! G2 B4 | ABcA C2 |!p! (AD)(DC) C2 |!f! C2 A2 c2 | fe f4 | EdcBED | C4 x2 :| %18

